src/svg/th-small-outline.svg

<svg version="1.2" baseProfile="tiny" xmlns="http://www.w3.org/2000/svg" width="24" height="24" viewBox="0 0 24 24"><path d="M6 16h-2c-1.104 0-2 .896-2 2v2c0 1.104.896 2 2 2h2c1.104 0 2-.896 2-2v-2c0-1.104-.896-2-2-2zm0 4h-2v-2h2v2zM6 9h-2c-1.104 0-2 .896-2 2v2c0 1.104.896 2 2 2h2c1.104 0 2-.896 2-2v-2c0-1.104-.896-2-2-2zm0 4h-2v-2h2v2zM6 2h-2c-1.104 0-2 .896-2 2v2c0 1.104.896 2 2 2h2c1.104 0 2-.896 2-2v-2c0-1.104-.896-2-2-2zm0 4h-2v-2h2v2zM13 16h-2c-1.104 0-2 .896-2 2v2c0 1.104.896 2 2 2h2c1.104 0 2-.896 2-2v-2c0-1.104-.896-2-2-2zm0 4h-2v-2h2v2zM13 9h-2c-1.104 0-2 .896-2 2v2c0 1.104.896 2 2 2h2c1.104 0 2-.896 2-2v-2c0-1.104-.896-2-2-2zm0 4h-2v-2h2v2zM13 2h-2c-1.104 0-2 .896-2 2v2c0 1.104.896 2 2 2h2c1.104 0 2-.896 2-2v-2c0-1.104-.896-2-2-2zm0 4h-2v-2h2v2zM20 16h-2c-1.104 0-2 .896-2 2v2c0 1.104.896 2 2 2h2c1.104 0 2-.896 2-2v-2c0-1.104-.896-2-2-2zm0 4h-2v-2h2v2zM20 9h-2c-1.104 0-2 .896-2 2v2c0 1.104.896 2 2 2h2c1.104 0 2-.896 2-2v-2c0-1.104-.896-2-2-2zm0 4h-2v-2h2v2zM20 2h-2c-1.104 0-2 .896-2 2v2c0 1.104.896 2 2 2h2c1.104 0 2-.896 2-2v-2c0-1.104-.896-2-2-2zm0 4h-2v-2h2v2z"/></svg>

<?xml version="1.0" encoding="iso-8859-1"?>
<!-- Generator: Adobe Illustrator 16.2.1, SVG Export Plug-In . SVG Version: 6.00 Build 0)  -->
<svg version="1.2" baseProfile="tiny" id="Layer_1" xmlns="http://www.w3.org/2000/svg" xmlns:xlink="http://www.w3.org/1999/xlink"
	 x="0px" y="0px" width="24px" height="24px" viewBox="0 0 24 24" xml:space="preserve">
<g>
	<path d="M6,16H4c-1.104,0-2,0.896-2,2v2c0,1.104,0.896,2,2,2h2c1.104,0,2-0.896,2-2v-2C8,16.896,7.104,16,6,16z M6,20H4v-2h2V20z"
		/>
	<path d="M6,9H4c-1.104,0-2,0.896-2,2v2c0,1.104,0.896,2,2,2h2c1.104,0,2-0.896,2-2v-2C8,9.896,7.104,9,6,9z M6,13H4v-2h2V13z"/>
	<path d="M6,2H4C2.896,2,2,2.896,2,4v2c0,1.104,0.896,2,2,2h2c1.104,0,2-0.896,2-2V4C8,2.896,7.104,2,6,2z M6,6H4V4h2V6z"/>
	<path d="M13,16h-2c-1.104,0-2,0.896-2,2v2c0,1.104,0.896,2,2,2h2c1.104,0,2-0.896,2-2v-2C15,16.896,14.104,16,13,16z M13,20h-2v-2
		h2V20z"/>
	<path d="M13,9h-2c-1.104,0-2,0.896-2,2v2c0,1.104,0.896,2,2,2h2c1.104,0,2-0.896,2-2v-2C15,9.896,14.104,9,13,9z M13,13h-2v-2h2V13
		z"/>
	<path d="M13,2h-2C9.896,2,9,2.896,9,4v2c0,1.104,0.896,2,2,2h2c1.104,0,2-0.896,2-2V4C15,2.896,14.104,2,13,2z M13,6h-2V4h2V6z"/>
	<path d="M20,16h-2c-1.104,0-2,0.896-2,2v2c0,1.104,0.896,2,2,2h2c1.104,0,2-0.896,2-2v-2C22,16.896,21.104,16,20,16z M20,20h-2v-2
		h2V20z"/>
	<path d="M20,9h-2c-1.104,0-2,0.896-2,2v2c0,1.104,0.896,2,2,2h2c1.104,0,2-0.896,2-2v-2C22,9.896,21.104,9,20,9z M20,13h-2v-2h2V13
		z"/>
	<path d="M20,2h-2c-1.104,0-2,0.896-2,2v2c0,1.104,0.896,2,2,2h2c1.104,0,2-0.896,2-2V4C22,2.896,21.104,2,20,2z M20,6h-2V4h2V6z"/>
</g>
</svg>
